X:256 
T:Midnight on the Water 
C:Luke Thomasson
M:3/4 
L:1/8 
K:G 
GA | B2 B2 BA | B2 B2 BA | B2 d3 e | dB AG GA | 
B2 g2 (3efe | d3 B GA | B2 dB AB | G4 GA | 
B2 B2 BA | B2 B2 BA | B2 d3 e | dB AG GA | 
B2 g2 (3efe | d3 B GA | B2 dB AB | G4 (3def || 
g3 f ga | gf ed ef | g3 e dB | G4 g2 | 
a4 b2 | a2 g2 a2 | b2 d'3 b | c'b ag ef | 
g3 fga | gf ed ef | g3 e dB | G4 GA | 
B2 g2 (3efe | d3 B GA | B2 dB AB | G4 || 

